X:1
T:Lady Charlotte Campbell
T:Lady Charlotte Campbell
T:Nathaniel Gow
C:Nathaniel Gow
L:1/8
Q:1/8=128
M:4/4
K:G
V:1 treble 
V:1
|: c | d>c B>G A<c B>c | d>c B>G E<A F<D | d>c B>G A<c B/c/d | e>c A>F G2- Gc | d>c B>G A<c B>c | %6
 d>c B>G E<A F<D | d>c B>G A<c B/c/d | e>c A>F G2- Gd | g/f/g/a/ g>d B>g d>g | %10
 a/g/f/e/ f>g a<A A>f | g/f/g/a/ g>d B>g d>B | e>c A>F G2 Gd | g/f/g/a/ g>d B<g d>g | %14
 a/g/f/e/ f>g a<A A>f | g>d b>f g>d e>c | B<d D>F G3 :| %17

